symbols-de/shields/motorway_10x1.svg

<?xml version="1.0" encoding="UTF-8" standalone="no"?>
<svg
   xmlns:dc="http://purl.org/dc/elements/1.1/"
   xmlns:cc="http://creativecommons.org/ns#"
   xmlns:rdf="http://www.w3.org/1999/02/22-rdf-syntax-ns#"
   xmlns:svg="http://www.w3.org/2000/svg"
   xmlns="http://www.w3.org/2000/svg"
   version="1.1"
   id="svg2"
   viewBox="0 0 68.0 15.0"
   height="100%"
   width="100%">
  <metadata
     id="metadata9">
    <rdf:RDF>
      <cc:Work
         rdf:about="">
        <dc:format>image/svg+xml</dc:format>
        <dc:type
           rdf:resource="http://purl.org/dc/dcmitype/StillImage" />
        <dc:title></dc:title>
      </cc:Work>
    </rdf:RDF>
  </metadata>
  <defs
     id="defs7" />
  <path
     style="fill:#365eaf;fill-opacity:1;stroke:#0528a2;stroke-width:1;stroke-miterlimit:4;stroke-dasharray:none;stroke-opacity:1"
     id="path6"
     d="m 0.5000206,7.5000011 0,-4.8363804 q 0,-0.2545488 1.0806444,-0.3818177 L 33.279572,0.51271052 q 0,-0.0126929 0.720426,-0.0126929 0.720428,0 0.720428,0.0126929 L 66.419333,2.281803 q 1.080646,0.1272689 1.080646,0.3818177 l 0,9.6727613 q 0,0.254547 -1.080646,0.381817 l -31.698907,1.769093 q 0,0.01269 -0.720428,0.01269 -0.720426,0 -0.720426,-0.01269 L 1.5806652,12.718199 Q 0.5000206,12.590929 0.5000206,12.336382 Z" />
</svg>

<?xml version="1.0" encoding="UTF-8"?>
<svg xmlns="http://www.w3.org/2000/svg" xmlns:xlink="http://www.w3.org/1999/xlink" width="71pt" height="18pt" viewBox="0 0 71 18" version="1.1">
<g id="surface1">
<path style="fill-rule:nonzero;fill:rgb(21.176471%,36.862745%,68.627451%);fill-opacity:1;stroke-width:1;stroke-linecap:butt;stroke-linejoin:miter;stroke:rgb(1.960784%,15.686275%,63.529412%);stroke-opacity:1;stroke-miterlimit:4;" d="M 0.50132 7.5 L 0.50132 2.66276 C 0.50132 2.49349 0.860475 2.366536 1.582526 2.281901 L 33.277949 0.514323 C 33.277949 0.504557 33.521127 0.501302 34 0.501302 C 34.478873 0.501302 34.722051 0.504557 34.722051 0.514323 L 66.417474 2.281901 C 67.139525 2.366536 67.49868 2.49349 67.49868 2.66276 L 67.49868 12.33724 C 67.49868 12.50651 67.139525 12.633464 66.417474 12.718099 L 34.722051 14.485677 C 34.722051 14.495443 34.478873 14.498698 34 14.498698 C 33.521127 14.498698 33.277949 14.495443 33.277949 14.485677 L 1.582526 12.718099 C 0.860475 12.633464 0.50132 12.50651 0.50132 12.33724 Z M 0.50132 7.5 " transform="matrix(1.044118,0,0,1.2,0,0)"/>
</g>
</svg>
